X: 30137
T: Old Campaign Ribbon, The
R: hornpipe
M: 4/4
K: Dmajor
|:(3ABc|dAFA DFAc|defd edBd|edBd efgd|(3efe (3dcB AB (3cBA|
dAFA DFAc|defd edBd|gfed (3cde (3ABc|1 d2f2d2:|2 d2f2d2ed||
|:ceAd cege|dfAf dfaf|gfga bagf|eba^ga2=gf|
eAfA gfec|dAfA bagf|(3gab eg (3fga df|1 geced2ed:|2 geced4||

